src/lib/packages/icons/src/assets/line/bell-slash.svg

<svg width="24" height="24" viewBox="0 0 24 24" fill="none" xmlns="http://www.w3.org/2000/svg">
<path d="M14.378 20.378C13.877 21.237 12.988 21.75 12 21.75C11.012 21.75 10.124 21.237 9.62203 20.378C9.41403 20.021 9.53405 19.561 9.89205 19.353C10.2491 19.144 10.7081 19.265 10.9181 19.623C11.3771 20.41 12.623 20.41 13.082 19.623C13.291 19.265 13.751 19.144 14.108 19.353C14.466 19.561 14.586 20.021 14.378 20.378ZM18.75 12.5V10C18.75 9.586 18.414 9.25 18 9.25C17.586 9.25 17.25 9.586 17.25 10V12.5C17.25 14.437 17.998 16.158 18.615 17.25H10C9.58602 17.25 9.25002 17.586 9.25002 18C9.25002 18.414 9.58602 18.75 10 18.75H20C20.288 18.75 20.551 18.585 20.676 18.325C20.801 18.065 20.766 17.757 20.586 17.531C20.567 17.509 18.75 15.206 18.75 12.5ZM21.5301 3.53L6.53005 18.53L3.53005 21.53C3.38405 21.676 3.19202 21.75 3.00002 21.75C2.80802 21.75 2.61599 21.677 2.46999 21.53C2.17699 21.237 2.17699 20.762 2.46999 20.469L4.19003 18.749H4.00002C3.71202 18.749 3.45004 18.584 3.32504 18.324C3.20004 18.065 3.23405 17.757 3.41305 17.531C3.43205 17.508 5.24905 15.188 5.24905 12.499V9C5.24905 5.278 8.27705 2.25 11.999 2.25C14.29 2.25 16.404 3.421 17.64 5.299L20.469 2.47C20.762 2.177 21.2371 2.177 21.5301 2.47C21.8231 2.763 21.8231 3.237 21.5301 3.53ZM16.545 6.395C15.616 4.778 13.889 3.75 12 3.75C9.10502 3.75 6.75002 6.105 6.75002 9V12.5C6.75002 14.437 6.00203 16.158 5.38503 17.25H5.68905L16.545 6.395Z" fill="currentColor"/>
</svg>

<svg xmlns="http://www.w3.org/2000/svg" width="24" height="24" fill="none"><path fill="currentColor" d="M14.378 20.378A2.73 2.73 0 0 1 12 21.75a2.73 2.73 0 0 1-2.378-1.372.75.75 0 1 1 1.296-.755c.46.787 1.705.787 2.164 0a.75.75 0 0 1 1.296.755ZM18.75 12.5V10a.75.75 0 0 0-1.5 0v2.5c0 1.937.748 3.658 1.365 4.75H10a.75.75 0 0 0 0 1.5h10a.75.75 0 0 0 .586-1.219c-.019-.022-1.836-2.325-1.836-5.031Zm2.78-8.97-15 15-3 3a.748.748 0 0 1-1.06 0 .75.75 0 0 1 0-1.061l1.72-1.72H4a.751.751 0 0 1-.587-1.218c.019-.023 1.836-2.343 1.836-5.032V9A6.758 6.758 0 0 1 12 2.25a6.767 6.767 0 0 1 5.641 3.049L20.47 2.47a.75.75 0 0 1 1.061 1.06Zm-4.985 2.865A5.254 5.254 0 0 0 12 3.75 5.256 5.256 0 0 0 6.75 9v3.5c0 1.937-.748 3.658-1.365 4.75h.304L16.545 6.395Z"/></svg>
